!!!OTL: 1470. Jsabell und Eduard.
!!!ARE: Europa, Mitteleuropa, Deutschland, Ober - Hessen; Wetterau
!!!SCT: E1470
!!!TXL: @@DE
!!!YEM: Copyright 1995, estate of Helmut Schaffrath.
**kern	**text
*ICvox	*
*M3/8	*
*k[f#c#]	*
*D:	*
!LO:TX:a:t=Gemächlich.	!
!LO:TX:a:t=Aus der Wetterau 1890 u. Oberheſſen 1880.	!
{16d	Ei-
16d	-ne
=1	=1
8dL	Hel-
8f#J	.
8a	-din
=2	=2
4a	wohl
8f#	er-
=3	=3
8f#	-ʒo-
8e}	-gen,
{8e	mit
=4	=4
4e	Na-
8g	-men
=5	=5
4a	J-
8g	-ſa-
=6	=6
4f#}	-bell,
{8d	die
=7	=7
8dL	ſchoß
8f#J	.
8a	mit
=8	=8
4dd	Pſeil
8b	u.
=9	=9
8b/	Bo-
8a}	-gen,
{8f#	ſo
=10	=10
4a	gut
8a	als
=11	=11
4g	Wil-
8a	-helm
=12	=12
4f#}	Tell.
{8d	die
=13	=13
8dL	ſchoß
8f#J	.
8a	mit
=14	=14
4dd	Pſeil
8b	u.
=15	=15
8b/	Bo-
8a}	-gen,
{8f#	ſo
=16	=16
4a	gut
8a	als
=17	=17
4g	Wil-
8a	-helm
=18	=18
4f#}	Tell.
==	==
!!!AGN: Staende -, Jaeger - Lied, Tod
!!!ONB: ESAC (Essen Associative Code) Database: ERK3
!!!AMT: simple triple
!!!AIN: vox
!!!EED: Helmut Schaffrath
!!!EEV: 1.0
!!!GTL: Staendelieder (Berufslieder). 2. Jaegerlieder und Jaegerballaden.
!!!URL-scan: https://rosdok.uni-rostock.de/mcrviewer/recordIdentifier/rosdok_ppn745177999/iview2/phys_0332.iview2?x=-128.77276441889285&y=186.82194240530953&scale=0.5870222003877487&rotation=0&layout=singlePageLayout
!!!ENC: Anna Maria Matuszewska
!!!EEV: 2025/03/01
*-	*-
